!!!!SEGMENT: pl-cz--d-ii-40--007_elsner-jozef--requiem-in-c-op-42-agnus.krn
!!!cenid: 18xx:36
!!!COM: Elsner, Józef
!!!COM-rismid: pe30000957
!!!CDT: 1769/06/01-1854/04/18
!!!CNT: Polish
!!!OPR: Requiem in C op. 42
!!!OTL: Agnus
!!!OMV: 007
!!!PDT:
!!!AGN: Sacred; Requiem
!!!SMS-siglum: PL-CZ
!!!SMS-shelfmark: D II-40
!!!SMS-shelfwork: 001-007 M
!!!NIFC-rismid:
!!!URL-scan: http://repozytorium.nifc.pl/skany/pl-cz-nut--dii-40
!!!ONB-nifc:
!!!AIN: 1 bass 2 cello 3 empty 2 fagot 2 tenor 1 timpa 3 tromt
!!!key:
**kern	**dynam	**kern	**kern	**kern	**kern	**dynam	**kern	**kern	**kern	**kern	**dynam	**kern	**text	**kern	**text	**kern	**text	**dynam
*part12	*part12	*part11	*part10	*part9	*part8	*part8	*part7	*part6	*part5	*part4	*part4	*part3	*part3	*part2	*part2	*part1	*part1	*part1
*staff12	*	*staff11	*staff10	*staff9	*staff8	*	*staff7	*staff6	*staff5	*staff4	*	*staff3	*staff3	*staff2	*staff2	*staff1	*staff1	*
*Iempty	*	*Itimpa	*Iempty	*Iempty	*Itromt	*	*Itromt	*Itromt	*Icello&Ifagot	*Icello&Ifagot	*	*Ibass	*	*Itenor	*	*Itenor	*	*
*I"Bassi	*	*I"Timpani in Es C G	*I"Clarino II in C	*I"Cornu II in F	*I"Trombone III	*	*I"Trombone II	*I"Trombone I	*I"Violoncello II con Fagotto	*I"Violoncello I con Fagotto	*	*I"Basso	*	*I"Tenore II	*	*I"Tenore I	*	*
*I'Cb	*	*I'Timp	*I'Clni	*I'Cor	*I'Tbn III	*	*I'Tbn II	*I'Tbn I	*I'Vc II con Fg	*I'Vc I con. Fg	*	*I'B	*	*I'T II	*	*I'T I	*	*
*clefF4	*	*clefF4	*clefG2	*clefG2	*clefF4	*	*clefC4	*clefC4	*clefF4	*clefC4	*	*clefF4	*	*clefC4	*	*clefC4	*	*
*	*	*	*	*ITrd4c7	*	*	*	*	*	*	*	*	*	*	*	*	*	*
*k[b-e-a-d-]	*	*k[ ]	*k[ ]	*k[ ]	*k[b-e-a-d-]	*	*k[b-e-a-d-]	*k[b-e-a-d-]	*k[b-e-a-d-]	*k[b-e-a-d-]	*	*k[b-e-a-d-]	*	*k[b-e-a-d-]	*	*k[b-e-a-d-]	*	*
*f:	*	*f:	*f:	*f:	*f:	*	*f:	*f:	*f:	*f:	*	*f:	*	*f:	*	*f:	*	*
*M4/4	*	*M4/4	*M4/4	*M4/4	*M4/4	*	*M4/4	*M4/4	*M4/4	*M4/4	*	*M4/4	*	*M4/4	*	*M4/4	*	*
*met(c)	*	*met(c)	*met(c)	*met(c)	*met(c)	*	*met(c)	*met(c)	*met(c)	*met(c)	*	*met(c)	*	*met(c)	*	*met(c)	*	*
=1	=1	=1	=1	=1	=1	=1	=1	=1	=1	=1	=1	=1	=1	=1	=1	=1	=1	=1
!	!	!	!	!	!	!	!	!	!	!	!	!	!	!	!	!LO:TX:a:Bi:t=Adagio.	!	!
!	!	!	!	!	!	!	!	!	!	!	!	!	!	!	!	!LO:TX:a:Bi:t=Agnus.	!	!
*	*	*	*	*^	*	*	*	*	*	*	*	*	*	*	*	*	*	*
2F\^	.	1r	1r	2.f/	2.F\	2F\	.	2F/	2A-\	2F\	2A-\^	.	2F\	A-	2F/	A-	2A-\^	A-	.
2D-\	.	.	.	.	.	2D-\	.	2F/	(>4.B-\	2F\	(>4.B-\	.	2D-\	-gnus	2F/	-gnus	4.B-\	-gnus	.
.	.	.	.	4r	4ryy	.	.	.	.	.	.	.	.	.	.	.	.	.	.
.	.	.	.	.	.	.	.	.	8c\)	.	8c\)	.	.	.	.	.	8c\	.	.
*	*	*	*	*v	*v	*	*	*	*	*	*	*	*	*	*	*	*	*	*
=2	=2	=2	=2	=2	=2	=2	=2	=2	=2	=2	=2	=2	=2	=2	=2	=2	=2	=2
!	!	!	!	!	!	!	!	!	!	!	!	!	!	!LO:N:vis=4	!	!	!	!
4.BB-/	.	1r	1r	1r	4.BB-/	.	4.F/	(>4.d-\	4.F\	(>4.d-\	.	(<4.BB-/	De-	(<4.F/	De-	(>4.d-\	De-	.
8C/	.	.	.	.	8C/	.	8En/	8G/)	8En\	8G/)	.	8C/)	.	8En/)	.	8G/)	.	.
4C/	.	.	.	.	4C/	.	4E/	4G/	4E\	4G/	.	4C/	-i	4E/	-i	4G/	-i	.
!	!	!	!	!	!	!	!	!	!	!	!LO:DY:a	!	!	!	!	!	!	!
4r	.	.	.	.	4r	.	4r	4r	8r	8r	p	4r	.	8r	.	8r	.	.
.	.	.	.	.	.	.	.	.	8E\	8G/	.	.	.	8E/	qui	8G/	qui	p
=3	=3	=3	=3	=3	=3	=3	=3	=3	=3	=3	=3	=3	=3	=3	=3	=3	=3	=3
4r	.	1r	1r	1r	1r	.	1r	1r	8.En\L	8.G/L	.	4r	.	8.En/L	tol-	8.G/L	tol-	.
.	.	.	.	.	.	.	.	.	16G\Jk	16B-\Jk	.	.	.	16G/Jk	.	16B-/Jk	.	.
8r	.	.	.	.	.	.	.	.	4F\	4A-\	.	8r	.	4F/	-lis	4A-/	-lis	.
(<8D-/	.	.	.	.	.	.	.	.	.	.	.	8D-/	qui	.	.	.	.	.
8.C/L	.	.	.	.	.	.	.	.	4r	4r	.	8.C/L	tol-	4r	.	4r	.	.
16D-/Jk	.	.	.	.	.	.	.	.	.	.	.	16D-/Jk	.	.	.	.	.	.
8C/L)	.	.	.	.	.	.	.	.	8r	8r	.	8C/	-lis	8r	.	8r	.	.
8BB-/J	.	.	.	.	.	.	.	.	8E\	8G/	.	8BB-/	pec-	8En/	pec-	8G/	pec-	.
=4	=4	=4	=4	=4	=4	=4	=4	=4	=4	=4	=4	=4	=4	=4	=4	=4	=4	=4
8AA-/L	.	1r	1r	1r	1r	.	1r	1r	4F\	8c\L	.	8AA-/	-ca-	8F/	-ca-	8c\	-ca-	.
16D-/L	.	.	.	.	.	.	.	.	.	8A-\J	.	16D-\LL	-ta	8F/	-ta	8A-\	-ta	.
16C/JJ	.	.	.	.	.	.	.	.	.	.	.	16C/JJ	.	.	.	.	.	.
4BB-/	.	.	.	.	.	.	.	.	8F\L	8d-\L	.	4BB-/	mun-	8F/L	mun-	8d-\L	mun-	.
.	.	.	.	.	.	.	.	.	8G\J	16e-\L	.	.	.	8G/J	.	16e-\L	.	.
.	.	.	.	.	.	.	.	.	.	16d-\JJ	.	.	.	.	.	16d-\JJ	.	.
4AA-/	.	.	.	.	.	.	.	.	4A-\	4c\	.	4AA-/	-di	4A-/	-di	4c\	-di	.
4C/	.	.	.	.	.	.	.	.	4E-\	8r	.	(>4C/	do-	(<4E-/	do-	8r	.	.
.	.	.	.	.	.	.	.	.	.	8A-\	.	.	.	.	.	8A-\	do-	.
=5	=5	=5	=5	=5	=5	=5	=5	=5	=5	=5	=5	=5	=5	=5	=5	=5	=5	=5
4D-\	.	1r	1r	1r	1r	.	1r	1r	4F\	8A-\	.	4D-\	.	4F/)	.	(>8A-\	.	.
.	.	.	.	.	.	.	.	.	.	4B-\	.	.	.	.	.	4B-\	.	.
4E-\	.	.	.	.	.	.	.	.	4G\	.	.	4E-\)	-na	4G/	-na	.	.	.
.	.	.	.	.	.	.	.	.	.	4c\	.	.	.	.	.	4c\	-na	.
4F\	.	.	.	.	.	.	.	.	4A-\	.	.	4F\	e-	4A-/	e-	.	.	.
.	.	.	.	.	.	.	.	.	.	4d-\	.	.	.	.	.	4d-\	e-	.
4D-\	.	.	.	.	.	.	.	.	4F\	.	.	4D-\	-i	4F/	-i	.	.	.
!	!	!	!	!	!	!	!	!	!	!LO:N:vis=8	!	!	!	!	!	!	!	!
.	.	.	.	.	.	.	.	.	.	16e-\LL	.	.	.	.	.	16e-\LL	-i	.
!	!	!	!	!	!	!	!	!	!	!LO:N:vis=8	!	!	!	!	!	!	!	!
.	.	.	.	.	.	.	.	.	.	16f\JJ	.	.	.	.	.	16f\JJ)	.	.
=6	=6	=6	=6	=6	=6	=6	=6	=6	=6	=6	=6	=6	=6	=6	=6	=6	=6	=6
4E-\	.	1r	1r	1r	1r	.	1r	1r	4A-\	4c\	.	4E-\	Re-	4A-\	Re-	4c\	Re-	.
4E-\	.	.	.	.	.	.	.	.	8.G\L	8.B-\L	.	4E-\	-qui-	8.G/L	-qui-	8.B-\L	-qui-	.
.	.	.	.	.	.	.	.	.	16A-\Jk	16c\Jk	.	.	.	16A-\Jk	.	16c\Jk	.	.
4AA-/	.	.	.	.	.	.	.	.	(>8A-\L	(>8c\L	.	4AA-/	-em	4A-\	-em	4c\	-em	.
.	.	.	.	.	.	.	.	.	8c\	8e-\	.	.	.	.	.	.	.	.
4r	.	.	.	.	.	.	.	.	8B-\	8d-\	.	4r	.	4r	.	4r	.	.
.	.	.	.	.	.	.	.	.	8G\J)	8e-\J)	.	.	.	.	.	.	.	.
=7	=7	=7	=7	=7	=7	=7	=7	=7	=7	=7	=7	=7	=7	=7	=7	=7	=7	=7
!!LO:PB:g=original
*	*	*	*	*^	*	*	*	*	*	*	*	*	*	*	*	*	*	*
!LO:TX:a:t=P:problem=akcent w drugą stronę	!	!	!	!LO:SIC:s=e-:v	!LO:SIC:s=e-:v	!	!	!	!	!	!	!	!	!	!	!	!	!	!
2A-\^	.	1r	1r	2e/	2e\	2A-\	.	2A-\	2c\	2A-\	2c\^	.	2A-\	A-	2A-\	A-	2c\^	A-	.
2F\	.	.	.	2r	2ryy	2F\	.	2A-\	4.d-\	2A-\	4.d-\	.	2F\	-gnus	2A-\	-gnus	4.d-\	-gnus	.
.	.	.	.	.	.	.	.	.	8e-\	.	8en\	.	.	.	.	.	8e-\	.	.
*	*	*	*	*v	*v	*	*	*	*	*	*	*	*	*	*	*	*	*	*
=8	=8	=8	=8	=8	=8	=8	=8	=8	=8	=8	=8	=8	=8	=8	=8	=8	=8	=8
4.D-\	.	1r	1r	1r	4.D-\	.	4.A-\	4.f\	4.A-\	4.f\	.	(>4.D-\	de-	(<4.A-\	de-	(>4.f\	de-	.
8E-\	.	.	.	.	8E-\	.	8G/	8B-\	8G\	8B-\	.	8E-\)	.	8G/)	.	8B-\)	.	.
4E-\	.	.	.	.	4E-\	.	4G/	4B-\	4G\	4B-\	.	4E-\	-i	4G/	-i	4B-\	-i	.
4r	.	.	.	.	4r	.	4r	4r	8r	8r	.	4r	.	8r	.	8r	.	.
.	.	.	.	.	.	.	.	.	8G\	8B-\	.	.	.	8G/	qui	8B-\	qui	.
=9	=9	=9	=9	=9	=9	=9	=9	=9	=9	=9	=9	=9	=9	=9	=9	=9	=9	=9
4r	.	1r	1r	1r	1r	.	1r	1r	8.G\L	8.B-\L	.	4r	.	8.G/L	tol-	8.B-\L	tol-	.
.	.	.	.	.	.	.	.	.	16B-\Jk	16d-\Jk	.	.	.	16B-/Jk	.	16d-\Jk	.	.
8r	.	.	.	.	.	.	.	.	4A-\	4c\	.	8r	.	4A-\	-lis	4c\	-lis	.
(>8F\	.	.	.	.	.	.	.	.	.	.	.	8F\	qui	.	.	.	.	.
8.E-\L	.	.	.	.	.	.	.	.	4r	4r	.	8.E-\L	tol-	4r	.	4r	.	.
16F\Jk	.	.	.	.	.	.	.	.	.	.	.	16F\Jk	.	.	.	.	.	.
8E-\L	.	.	.	.	.	.	.	.	8r	8r	.	8E-\	-lis	8r	.	8r	.	.
8D-\J)	.	.	.	.	.	.	.	.	8G\	8B-\	.	8D-\	pec-	8G/	pec-	8B-\	pec-	.
=10	=10	=10	=10	=10	=10	=10	=10	=10	=10	=10	=10	=10	=10	=10	=10	=10	=10	=10
8C/L	.	1r	1r	1r	1r	.	1r	1r	8A-\L	8e-\	.	8C/	-ca-	8A-\	-ca-	8e-\	-ca-	.
16F\L	.	.	.	.	.	.	.	.	16A-\L	4c\	.	16F\LL	-ta	16A-\LL	-ta	8c\	-ta	.
16E-\JJ	.	.	.	.	.	.	.	.	16G\JJ	.	.	16E-\JJ	.	16G/JJ	.	.	.	.
4D-\	.	.	.	.	.	.	.	.	4F\	.	.	4D-\	mun-	4F/	mun-	8c\L	mun-	.
.	.	.	.	.	.	.	.	.	.	8Bn\	.	.	.	.	.	8Bn\J	.	.
4C/	.	.	.	.	.	.	.	.	4En\	4c\	.	4C/	-di	4En/	-di	4c\	-di	.
4En\	.	.	.	.	.	.	.	.	4G\	8r	.	(>4En\	do-	(<4G/	do-	8r	.	.
.	.	.	.	.	.	.	.	.	.	8c\	.	.	.	.	.	8c\	do-	.
=11	=11	=11	=11	=11	=11	=11	=11	=11	=11	=11	=11	=11	=11	=11	=11	=11	=11	=11
4F\	.	1r	1r	1r	1r	.	1r	1r	4A-\	8c\	.	4F\)	.	4A-\)	.	8c\	.	.
.	.	.	.	.	.	.	.	.	.	4d-\	.	.	.	.	.	4d-\	.	.
4G\	.	.	.	.	.	.	.	.	4B-\	.	.	4G\	-na	4B-\	-na	.	.	.
.	.	.	.	.	.	.	.	.	.	4e-\	.	.	.	.	.	4e-\	-na	.
4A-\	.	.	.	.	.	.	.	.	4c\	.	.	4A-\	e-	4c\	e-	.	.	.
.	.	.	.	.	.	.	.	.	.	4f\	.	.	.	.	.	4f\	e-	.
4F\	.	.	.	.	.	.	.	.	4A-\	.	.	4F\	-i	4A-\	-i	.	.	.
.	.	.	.	.	.	.	.	.	.	16g\LL	.	.	.	.	.	16g\LL	-i	.
.	.	.	.	.	.	.	.	.	.	16a-\JJ	.	.	.	.	.	16a-\JJ	.	.
=12	=12	=12	=12	=12	=12	=12	=12	=12	=12	=12	=12	=12	=12	=12	=12	=12	=12	=12
4G\	.	1r	1r	1r	1r	.	1r	1r	4c\	4e-\	.	4G\	Re-	4c\	Re-	4e-\	Re-	.
4G\	.	.	.	.	.	.	.	.	8Bn\L	8.dn\L	.	4G\	-qui-	8.Bn\L	-qui-	8.dn\L	-qui-	.
.	.	.	.	.	.	.	.	.	8c\J	.	.	.	.	.	.	.	.	.
.	.	.	.	.	.	.	.	.	.	16e-\Jk	.	.	.	16c\Jk	.	16e-\Jk	.	.
4C/	.	.	.	.	.	.	.	.	(>8c\L	(>8e-\L	.	4C/	-em	4c\	-em	4e-\	-em	.
.	.	.	.	.	.	.	.	.	8e-\	8g\	.	.	.	.	.	.	.	.
4r	.	.	.	.	.	.	.	.	8dn\	8f\	.	4r	.	4r	.	4r	.	.
.	.	.	.	.	.	.	.	.	8B\J)	8g\J)	.	.	.	.	.	.	.	.
=13	=13	=13	=13	=13	=13	=13	=13	=13	=13	=13	=13	=13	=13	=13	=13	=13	=13	=13
2A-\^	.	1r	1r	[1c/	2A-\	.	2c\	2e-\	2c\	2e-\^	.	2A-\	A-	2c\	A-	2e-\^	A-	.
4.G\	.	.	.	.	4.G\	.	4.B-\	4.en\	4.B-X\	4.en\	.	4.G\	-gnus	4.B-X\	-gnus	4.en\	-gnus	.
8F\	.	.	.	.	8F\	.	8A-\	8f\	8A-\	8f\	.	8F\	.	8A-\	.	8f\	.	.
=14	=14	=14	=14	=14	=14	=14	=14	=14	=14	=14	=14	=14	=14	=14	=14	=14	=14	=14
!	!	!	!	!	!	!	!	!	!	!	!	!LO:N:vis=4	!	!	!	!	!	!
4.En\	.	1r	1r	2c/]	4.En\	.	(>4.B-\	(>4.g\	4.B-\	(>4.g\	.	4.En\	de-	(>4.B-\	de-	(>4.g\	de-	.
8F\	.	.	.	.	8F\	.	8A-\)	8c\)	8A-\	8c\)	.	8F\	.	8A-\)	.	8c\)	.	.
4F\	.	.	.	4c/	4F\	.	4A-\	4c\	4A-\	4c\	.	4F\	-i	4A-\	-i	4c\	-i	.
4r	.	.	.	4r	4r	.	4r	4r	4r	4r	.	4r	.	8r	.	8r	.	.
.	.	.	.	.	.	.	.	.	.	.	.	.	.	8An\	qui	8c\	qui	.
=15	=15	=15	=15	=15	=15	=15	=15	=15	=15	=15	=15	=15	=15	=15	=15	=15	=15	=15
1r	.	1r	1r	1r	1r	.	1r	1r	2r	2r	.	4r	.	8.An\L	tol-	8.c\L	tol-	.
.	.	.	.	.	.	.	.	.	.	.	.	.	.	16c\Jk	.	16e-\Jk	.	.
.	.	.	.	.	.	.	.	.	.	.	.	8r	.	4B-\	-lis	4d-\	-lis	.
.	.	.	.	.	.	.	.	.	.	.	.	8G-X\	qui	.	.	.	.	.
.	.	.	.	.	.	.	.	.	4r	4r	.	8.F\L	tol-	4r	.	4r	.	.
.	.	.	.	.	.	.	.	.	.	.	.	16G-\Jk	.	.	.	.	.	.
.	.	.	.	.	.	.	.	.	8r	8r	.	8F\	-lis	8r	.	8r	.	.
.	.	.	.	.	.	.	.	.	8An\	8c\	.	8r	.	8A\	qui	8c\	qui	.
=16	=16	=16	=16	=16	=16	=16	=16	=16	=16	=16	=16	=16	=16	=16	=16	=16	=16	=16
!	!	!	!	!	!	!	!	!	!LO:SIC:s=8.An:v	!	!	!	!	!	!	!	!	!
4r	.	1r	1r	1r	1r	.	1r	1r	8.A-\L	8.c\L	.	4r	.	8.An\L	tol-	8.c\L	tol-	.
.	.	.	.	.	.	.	.	.	16c\Jk	16e-\Jk	.	.	.	16c\Jk	.	16e-\Jk	.	.
8r	.	.	.	.	.	.	.	.	4B-\	4d-\	.	8r	.	4B-\	-lis	4d-\	-lis	.
!	!LO:DY:a	!	!	!	!	!	!	!	!	!	!	!	!	!	!	!	!	!
(>8G-X\	p	.	.	.	.	.	.	.	.	.	.	8G-X\	qui	.	.	.	.	.
8.F\L	.	.	.	.	.	.	.	.	4r	4r	.	8.F\L	tol-	4r	.	4r	.	.
16G-\Jk)	.	.	.	.	.	.	.	.	.	.	.	16G-\Jk	.	.	.	.	.	.
8F\L	.	.	.	.	.	.	.	.	8r	8r	.	8F\	-lis	8r	.	8r	.	.
8E-\J	.	.	.	.	.	.	.	.	8An\	8c\	.	8E-\	pec-	8A\	pec-	8c\	pec-	.
=17	=17	=17	=17	=17	=17	=17	=17	=17	=17	=17	=17	=17	=17	=17	=17	=17	=17	=17
!!LO:PB:g=original
4D-/	.	1r	1r	1r	1r	.	1r	1r	(>8.B-\L	4f\	.	4D-\	-ca-	8.B-\L	-ca-	4f\	-ca-	.
.	.	.	.	.	.	.	.	.	16Bn\K	.	.	.	.	16Bn\Jk	.	.	.	.
!	!	!	!	!	!	!	!	!	!	!	!	!	!	!LO:TX:a:t=P:problem=mixed beam	!	!	!	!
4C/	.	.	.	.	.	.	.	.	8.c\	4e-\	.	4C/	-ta	8c\L	-ta	4e-\	-ta	.
.	.	.	.	.	.	.	.	.	.	.	.	.	.	8E-/J	.	.	.	.
.	.	.	.	.	.	.	.	.	16E-\Jk)	.	.	.	.	.	.	.	.	.
4BB-/	.	.	.	.	.	.	.	.	8.F\L	4d-\	.	4BB-/	mun-	8.F/L	mun-	4d-\	mun-	.
.	.	.	.	.	.	.	.	.	16G\K	.	.	.	.	16G/Jk	.	.	.	.
4AA-/	.	.	.	.	.	.	.	.	8A-\	[4c\	.	4AA-/	.	8A-\L	.	[4c\	.	.
.	.	.	.	.	.	.	.	.	8G\J	.	.	.	.	8G/J	.	.	.	.
=18	=18	=18	=18	=18	=18	=18	=18	=18	=18	=18	=18	=18	=18	=18	=18	=18	=18	=18
2D-\	.	1r	1r	1r	1r	.	1r	1r	2F\	4c\]	.	2D-\	.	2F/	.	4c\]	.	.
.	.	.	.	.	.	.	.	.	.	4Bn\	.	.	.	.	.	4Bn\	.	.
4C/	.	.	.	.	.	.	.	.	4En\	4c\	.	4C/	-di	4En/	-di	4c\	-di	.
8Dn/L	.	.	.	.	.	.	.	.	8.F\L	4r	.	8Dn\L	do-	(<8.F/L	do-	4r	.	.
8En/J	.	.	.	.	.	.	.	.	.	.	.	8En\J	.	.	.	.	.	.
.	.	.	.	.	.	.	.	.	16G\Jk	.	.	.	.	16G/Jk)	.	.	.	.
=19	=19	=19	=19	=19	=19	=19	=19	=19	=19	=19	=19	=19	=19	=19	=19	=19	=19	=19
!	!	!	!	!LO:N:vis=2	!	!	!	!	!	!	!	!	!	!	!	!	!	!
2F\^	.	1r	1r	2.F/	2F\	.	1F/	2A-\	1F\	2A-\	.	2F\	.	1F/	-na	(>2A-\^	do-	.
2D-X\	.	.	.	.	2D-X\	.	.	4.B-\	.	4.B-\	.	2D-X\	-na	.	.	4.B-\	-na	.
.	.	.	.	4r	.	.	.	.	.	.	.	.	.	.	.	.	.	.
.	.	.	.	.	.	.	.	8c\	.	8c\	.	.	.	.	.	8c\)	.	.
=20	=20	=20	=20	=20	=20	=20	=20	=20	=20	=20	=20	=20	=20	=20	=20	=20	=20	=20
!	!	!	!	!	!	!	!	!LO:TX:a:t=P:problem=mixed beam	!	!	!	!	!	!	!	!	!	!
8BB-/L	.	1r	1r	1r	8.BB-/L	.	(<8.F/L	8d-\L	8.F\L	8.d-\L	.	8.BB-/L	e-	8.F/L	e-	(>8.d-\L	e-	.
8C/J	.	.	.	.	.	.	.	8G/J	.	.	.	.	.	.	.	.	.	.
.	.	.	.	.	16C/Jk	.	16En/Jk	.	16En\Jk	16G\Jk	.	16C/Jk	.	16En/Jk	.	16G\Jk)	.	.
8C/L	.	.	.	.	8C/L	.	4E/	4G/	4E\	4G/	.	8C/L	-i	4E/	-i	4G/	-i	.
8BB-/J	.	.	.	.	8BB-/J	.	.	.	.	.	.	8BB-/J	.	.	.	.	.	.
4AA-/	.	.	.	.	4AA-/	.	4F/)	4c\	4F\	4c\	.	4AA-/	Re-	(<4F/	Re-	4c\	Re-	.
4BB-/	.	.	.	.	4BB-/	.	4D-/	8.F/L	4D-\	8.F/L	.	4BB-/	.	4D-/)	.	8.F/L	.	.
.	.	.	.	.	.	.	.	16G/Jk	.	16G/Jk	.	.	.	.	.	16G/Jk	.	.
=21	=21	=21	=21	=21	=21	=21	=21	=21	=21	=21	=21	=21	=21	=21	=21	=21	=21	=21
4C/	.	1r	1r	1r	4C/	.	4F/	4A-\	4F\	4A-\	.	4C/	.	4F/	.	4A-\	-qui-	.
4C/	.	.	.	.	4C/	.	8.En/L	8.G/L	8.En\L	8.G/L	.	4C/	-qui-	8.En/L	-qui-	8.G/L	-em	.
.	.	.	.	.	.	.	16F/Jk	16F/Jk	16F\Jk	16F/Jk	.	.	.	16F/Jk	.	16F/Jk	.	.
4D-\	.	.	.	.	4D-\	.	4F/	4F/	4F\	4F/	.	4D-/	-em	4F/	-em	4F/	Sem-	.
4C/	.	.	.	.	4r	.	4r	4r	4E-X\	8r	.	4C/	Sem-	4E-X/	Sem-	8r	.	.
.	.	.	.	.	.	.	.	.	.	8A-\	.	.	.	.	.	8A-\	.	.
=22	=22	=22	=22	=22	=22	=22	=22	=22	=22	=22	=22	=22	=22	=22	=22	=22	=22	=22
!	!LO:DY:a	!	!	!	!	!	!	!	!	!	!	!	!	!	!	!	!	!
4D-\	p	1r	1r	1r	1r	.	1r	1r	4F\	8A-\	.	4D-\	.	4F/	.	8A-\	.	.
.	.	.	.	.	.	.	.	.	.	4B-\	.	.	.	.	.	4B-\	.	.
4E-\	.	.	.	.	.	.	.	.	4G\	.	.	4E-\	.	4G/	.	.	.	.
.	.	.	.	.	.	.	.	.	.	4c\	.	.	.	.	.	4c\	.	.
4F\	.	.	.	.	.	.	.	.	4A-\	.	.	4F\	.	4A-\	.	.	.	.
.	.	.	.	.	.	.	.	.	.	4d-\	.	.	.	.	.	4d-\	.	.
4G\	.	.	.	.	.	.	.	.	4B-\	.	.	4G\	.	4B-\	.	.	.	.
.	.	.	.	.	.	.	.	.	.	[8en\	.	.	.	.	.	[8en\	.	.
=23	=23	=23	=23	=23	=23	=23	=23	=23	=23	=23	=23	=23	=23	=23	=23	=23	=23	=23
8.F\L	.	1r	1r	1r	2r	.	1r	1r	8.A-\L	8e\]	.	8.F\L	.	8.A-\L	.	8e\]	.	.
.	.	.	.	.	.	.	.	.	.	4f\	.	.	.	.	.	4f\	.	.
16G\Jk	.	.	.	.	.	.	.	.	16B-\Jk	.	.	16G\Jk	.	16B-\Jk	.	.	.	.
8A-\L	.	.	.	.	.	.	.	.	4c\	.	.	8A-\L	.	4c\	.	.	.	.
8An\J	.	.	.	.	.	.	.	.	.	4e-X\	.	8An\J	.	.	.	4e-X\	.	.
4B-\	.	.	.	.	4r	.	.	.	4B-\	.	.	4B-\	.	4B-\	.	.	.	.
.	.	.	.	.	.	.	.	.	.	8d-\	.	.	.	.	.	8d-\	.	.
4BB-/	.	.	.	.	4BB-/	.	.	.	8d-\L	8f\L	.	4BB-/	-pi-	(>8d-\L	-pi-	(>8f\L	-pi-	.
.	.	.	.	.	.	.	.	.	16B-\L	16d-\L	.	.	.	16B-\L	.	16d-\L	.	.
.	.	.	.	.	.	.	.	.	16G\JJ	16B-\JJ	.	.	.	16G\JJ)	.	16B-\JJ)	.	.
=24	=24	=24	=24	=24	=24	=24	=24	=24	=24	=24	=24	=24	=24	=24	=24	=24	=24	=24
*	*	*	*	*^	*	*	*	*	*	*	*	*	*	*	*	*	*	*
!	!	!	!	!	!	!	!LO:DY:a	!	!	!	!	!	!	!	!	!	!	!	!
2C/	.	1r	1r	2c/	2c\	2C/	p	4r	4r	2F\	2F/	.	2C/	-ter-	2F/	-ter-	2A-\	-ter-	.
.	.	.	.	.	.	.	.	(<4F/	(<4A-\	.	.	.	.	.	.	.	.	.	.
*	*	*	*	*v	*v	*	*	*	*	*	*	*	*	*	*	*	*	*	*
!	!	!	!	!	!	!	!	!	!LO:SIC:s=4.En:v	!	!	!	!	!	!	!	!	!
4.C/	.	.	.	4.c/	4.C/	.	4.En/	4.G/	4.E-\	(<4.G/	.	4.C/	.	4.En/	.	4.G/	.	.
8F\	.	.	.	8F/	8F\	.	8F/)	8F/)	8F\	8F/)	.	8F\	.	8F/	.	8F/	.	.
=25	=25	=25	=25	=25	=25	=25	=25	=25	=25	=25	=25	=25	=25	=25	=25	=25	=25	=25
2.F\	.	1r	1r	2.F/	2.F\	.	2.F/	2.F/	2.F\	2.F/	.	2.F\	-nam	2.F/	-nam	2.F/	-nam	.
4r	.	.	.	4r	4r	.	4r	4r	4r	4r	.	4r	.	4r	.	4r	.	.
==	==	==	==	==	==	==	==	==	==	==	==	==	==	==	==	==	==	==
*-	*-	*-	*-	*-	*-	*-	*-	*-	*-	*-	*-	*-	*-	*-	*-	*-	*-	*-
!!!system-decoration: [(s1,s2,s3,s4,s5)][(s6,s7,s8)][(s9,s10,s11,s12)]
!!!RDF**kern: > = above
!!!RDF**kern: < = below
!!!ENC: Andrzej Borzym
!!!END: 2020-02-10
!!!ENC: Marta Lawrence
!!!END: 2020-03-12
